-----BEGIN PGP PUBLIC KEY BLOCK-----

mQINBFS6p94BEADaoJNiq0QlaDdLXo8W5GDRyuaJnboMvEAb3DAkGeH2eonkJ3AM
a8qmcvNM1mKnRItQ+KJKkAprEsr+pXpMYR/j89kaRlChWT6FmLcIRQBjQLod8OKJ
G3T1/AQQMkFdIQVls+1hPvFQAJdwvZbViYMPu9CONsNsbODmwnubhz5CfbWEa0Jb
LN8efnDTkdNr6mgd9kg6ITAcOa6d4Qdj00YJY8LTN7VxLkVj+0C2hw3+FRBjhOBD
BoGWKm/hpVlZkSWWFjWWTFHGBJ2osPY7Anmwxc28IHRTojcy8qElcqVaK59e+mVz
YgOB5XLrbJ1Ms4IT5y8hNiglCXM3eJDx8DXXMTQKpAtqWj3nd/Q5L5HbdV3l8fYA
8wx5Pq+5RSWfM4oJWNZLs+kid43mvHmwKnSU2sRKtnnvGqLomKJIruvHH46WSexB
Yl+W/8cTrPph6uKB5WSUa62QK4QI9qV5QrHoRBxoAO/LRQFdndvs00jpd6kMUfho
v5Wquj/BANqaAan+W0/GNp+aOWabhRcfagM64UIeQa47TbNHGcUeGTP4Y52zMQ5R
S2yizLo3L0CchrZtcDqskhwsuOS6MlwmlyCi7qJ9IFciNiontROYY1B/7ouabdO9
AectEiOspypMl36mJqnZxTGhCz1tIoWmhOmwbn+sxCVbUjKQQQInDZExlQARAQAB
tC1DaHJpc3RvcGggUmVpdGVyIDxyZWl0ZXIuY2hyaXN0b3BoQGdtYWlsLmNvbT6J
AlQEEwEIAD4CGwMFCwkIBwMFFQoJCAsFFgIDAQACHgECF4AWIQQOv3gsXVP35fsC
pmdGvXYfekmw7AUCZ6hj8wUJFM7vlQAKCRBGvXYfekmw7E0nEADP03B7vg8wA7UV
nennkxWiUuiTCBqjygYBhVenXwz11I86PO0nKK4h4LDkB2wDlkF00DOAE0mi6pDh
BYgp+u9g+/ZRSDd9P72+QJs95MUVRCQy7QGb64nHbZXwtdiJcxPAQvX+uGC4XhpM
K091VjqsMkzcsCkzPLZ0oh/3ESjz6rV7h9mbDugt5GJQRKIfcddOG+k4Nm3XAhNA
KvCquE78NjDWrge1t/wCxNGqNy3MJ3dSo5drHf4c45mVptkgc7KUJMKYjRw3oGkY
iHTsT2wf53qHJqmpd3bN8sAzlcLGnw2w8kSsAmoyNT/eBQGMCce9eRhbiKJ1lwq0
sZx2ub6oEvA0YsCECgthKnEQhdsA2v8r7WUD98WT3msYqfxyvnqO8DrZxLjXBn4p
M3mmkrnyQtkE/qY/qvhqRpE6kunoMirG0YHym8/rd0Te7iJArupJtBvBDcc7EHf5
C0iqonG+ymSR/lp7nMebNKJoCNLCLG0Y8RfWbn0XHUYG9vrwtmKfA4Wxj3huvRQ7
PcPTGoWW21JDtrseEvcL0wsqDFF4XZsymhJlTPNhj1z+pc8goV6cQ5CP0fACBob9
NilFZ/hCHInv/2Xd9e4xpOQPB0g67psi97SomxZ6qiW0x7xscN/iY+Fqao1kLoGD
fOLisna7TLGBr8M4PXEsssTR6xCnWQ==
=Padp
-----END PGP PUBLIC KEY BLOCK-----
